X:1
T:Inclina
T:Inclina
T:Paolo Tarditi
C:Paolo Tarditi
%%score [ 1 2 ] 3
L:1/8
Q:1/4=120
M:4/4
K:F
V:1 treble nm="Soprano" snm="S"
V:2 bass nm="Bass" snm="B"
V:3 bass nm="BC" snm="BC"
V:1
"^Source: Selectae Cantiones---Liber I---Roma---B.Zannettum---1616.\nEditor : André Vierendeels (01/01/09)\n" G8 B8- | %1
w: In- cli-|
 B4 G4 A4 F4 | G4 c8 B4 | A8 A8 | z8 z4 G4 | B12 G4 | A4 F4 G4 GAGA | BcBc d4 z cde f4- | %8
w: * a Do- mi-|ne au- rem|tu- am|in-|cli- na|Do- mi- ne au- * * *||
 f4 d4 c8 | B8 c8 | d8 B8- | B4 ^c4 d8 | z8 B6 B2 | B4 c6 c2 B4 | A8 A8 | z4 A6 A2 A2 F2 | %16
w: * tem tu-|* am|ex- au-|* di me|quo- ni-|am pau- per sum|e- go|mi- se- re- re|
 G4 A4 B6 B2 | A8 z8 | z16 | z4 c6 c2 c2 A2 | BcdB cABc d6 d2 | c4 A3 A A2 c2 B2 A2 | G8 A4 c2 c2 | %23
w: me- i Do- mi-|ne||mi- se- re- re|me- * * * i _ _ _ Do- mi-|ne quo- ni- am ad te cla-|ma- i to- ta|
 c4 A4 z4 f2 f2 | f4 d4 z4 z2 d2 | c3 B c2 d3 d d2 c2 d2 | ^c2 d4 c2 d8- | d8 z4 A4- | %28
w: di- e, to- ta|di- e. Lae-|ti- fi- ca a- ni- ma ser- vi-|tu- * * i.|_ Quo-|
 A4 A4 A4 c2 c2 | c3 c c2 d3 d c2 d4 | c8 z8 | z8 z4 A2 A2 | A3 A F4 z4 z2 B2- | %33
w: * ni am ad te|Do- mi- ne a- ni- mam me-|am,|ad te|Do- mi- ne a-|
 BB A2 B>GAB ABAB cBAG | F2 DE FGAB c2 G3 G G2 | B8 A8 | z2 G3 ABc d2 A3 B c2- | %37
w: * ni- mam me- * * * * * * * * * * *|am _ _ _ _ _ _ _ a- ni- mam|me- am|le- * * * * va- * *|
 cB/A/ G3 ABc dABc dcde | ^c2 d4 c2 d4 z2 A2 | A4 d4 c4 A4 | B6 B2 A8 | z2 d2 B2 G2 ABAG FG AF | %42
w: |* * * vi o-|sten- de no- bis|Do- mi- ne|mi- se- ri- cor- * * * di- * am _|
 GAGA BABB A2 A2 A2 d2 | cdcB ABcA B6 B2 | A2 c2 A2 F2 B4 B2 B2 | c8 B8 | %46
w: tu- * * * * * * * am, o- sten- de|no- * * * bis _ _ _ Do- mi-|ne mi- se- ri- cor- di- am|tu- am|
 z2 d2 d2 d2 cBBA/G/ BBAG/A/ | B4 B4 z4 G4 | B8 A8- | A8 G8- | G16 |] %51
w: et sa- lu- ta- * * * * re _ _ _ _|tu- um da|no- *|* bis.|_|
V:2
 z16 | z16 | z16 | D,8 F,8- | F,4 D,4 E,4 C,4 | G,8 z8 | z8 z4 G,4 | z A,G,A, B,CB,C D4 z D,F,G, | %8
w: |||In- cli-|* na Do- mi-|ne|au-||
 A,F,G,A, B,4 F,8 | B,,8 F,8- | F,4 ^F,4 G,8 | E,8 D,8 | B,6 B,2 B,8 | z4 F,6 F,2 G,4 | A,8 D,8- | %15
w: * * * * rem tu-|* am|_ ex- au-|di me|quo- ni- am|pau- per sum|e- go|
 D,8 z8 | z16 | z4 D,6 D,2 D,2 B,,2 | C,4 D,4 _E,6 E,2 | D,4 A,6 A,2 A,2 F,2 | %20
w: _||mi- se- re- re|me- i Do- mi-|ne mi- se- re- re|
 G,A,B,G, A,F,G,A, B,6 B,2 | A,4 F,3 F, F,2 A,2 G,2 A,2 | C8 F,8- | F,4 F,2 F,2 F,4 D,4 | %24
w: me- * * * * * * * Do- mi-|ne quo- ni- am ad te cla-|ma- vi|_ to- ta di- e,|
 z4 B,2 B,2 B,4 G,4 | z16 | z16 | z4 D,6 D,2 D,4 | z8 z4 A,2 A,2 | A,3 A, A,2 B,3 B, A,2 B,4 | %30
w: to- ta di- e|||quo- ni- am|ad te|Do- mi- ne a- ni- mam me-|
 F,4 F,4 G,8 | A,8 D,8 | z4 F,2 F,2 F,3 F, D,2 G,2- | G,G, ^F,2 G,B,A,G, F,G,F,G, A,G,F,E, | %34
w: am le- va-|* vi|ad te Do- mi- ne a-|* ni- mam me- * * * * * * * * * * *|
 D,4 D,E,F,G, A,B, C3 B,/A,/ G,2 | z2 G,3 G, G,2 D2 D,E, F,G,A,B, | C4 G,3 A, B,C D2 A,3 B, | %37
w: am _ _ _ _ _ _ _ _ _ _|a- ni- mam me- am _ _ _ _ _|_ le- * * * * va- *|
 C3 B,/A,/ G,3 A, B,CDA, B,A,B,G, | A,8 D,8 | z16 | z8 z4 D,4 | D,4 G,4 F,4 D,4 | _E,6 E,2 D,8 | %43
w: |* vi||o-|sten- de no- bis|Do- mi- ne|
 z2 A,2 F,2 D,2 G,A,G,A, B,A,B,G, | F,2 A,2 F,2 D,2 G,4 G,2 D,2 | F,8 B,,2 B,2 B,2 B,2 | %46
w: mi- se- ri- cor- * * * di- * * *|am, mi- se- ri- cor- di- am|tu- am, et sa- lu-|
 B,4 z A,A,G,/F,/ G,4 z ^F,F,E,/F,/ | G,4 G,2 D,2 G,8- | G,8 D,8- | D,8 G,8- | G,16 |] %51
w: ta- * * * * * re _ _ _|tu- um da no-||* bis.|_|
V:3
 G,8 G,8 | _E,8 D,8 | C,8 G,8 | D,8 F,8- | F,4 D,4 E,4 C,4 | G,8 G,8 | D,8 C,4 G,4- | %7
 G,2 A,2 B,2 C2 D4 D,4 | A,4 B,4 F,8 | B,,8 F,8- | F,4 ^F,4 G,8 | E,8 D,8 | B,6 B,2 B,8 | %13
 z4 F,6 F,2 G,4 | A,8 D,8- | D,8 D8 | C4 A,4 G,8 | D4 D,6 D,2 D,2 B,,2 | C,4 D,4 _E,8 | %19
 D,4 A,6 A,2 A,2 F,2 | G,4 A,4 B,8 | A,4 F,4 F,2 A,2 G,2 A,2 | C8 F,8 | F,4 F,2 F,2 F,4 D,4 | %24
 D,4 B,2 B,2 B,4 G,2 B,2 | F,6 B,,3 B,, A,,2 G,,4 | A,,8 D,8- | D,4 D,6 D,2 D,4 | %28
 ^C,4 D,4 A,4 A,2 A,2 | A,3 A, A,2 B,3 B, A,2 B,4 | F,8 G,8 | A,8 D,8 | %32
 D,4 F,2 F,2 F,3 F, D,2 G,2- | G,G, ^F,2 G,4 F,4 F,2 E,2 | D,8 A,2 C2 G,4 | G,8 D,8 | %36
 C,4 G,3 A, B,C D2 A,3 B, | C3 B,/A,/ G,3 A, B,8 | A,8 D,8 | D8 A,4 D4 | G,8 D4 D,4- | %41
 D,4 G,4 F,4 D,4 | _E,8 D,8 | A,4 F,2 D,2 G,8 | F,2 A,2 F,2 D,2 G,6 D,2 | F,8 B,,2 B,2 B,2 B,2 | %46
"^Notes: original keys:Ut 1st, Fa 3 rd, Fa 3rd\n            editorial accidentals above the staff" B,6 A,2 G,4 ^F,4 | %47
 G,8 G,,8 | G,8 D,8- | D,8 G,8- | G,16 |] %51

